X:3118
T:Pål Astrids Skänklåt
C:Pål Olle
O:Rättvik, Dalarna
M:4/4
L:1/8
R:Skänklåt
N:Påhl Olof Dyrsmeds, 1915-1987.
Z:Per Odberg 2013-01
V:1
V:2
K:Gmin
V:1
|: D2 | G^F GA B2dc | B2AB G3B |  A^F DF Ac BA | G6D2 | 
V:2
|: D2 | DC D^F G2BA | G2^FG D3G | ^FD A,D FA GD | B,6 D2 | 
V:1
G^F GA BA Bd | g2 ^fg a3g | =f2gf =ed ^ce | d6 :| 
V:2
DC D^F GF GB | B2 d=e ^f3d | d2ed ^c=B AG | ^F6 :|
V:1
|: g2- | g2^fg a2 g2 | d2 dcB2 (3Bcd | e2 c2 AF Bc | d6z2 | 
V:2
|: B2- |B2 d=e ^f2d2 | B2BA G2 (3GAB | c2A2FC DA | B6z2 | 
V:1
g2 ^fg d2c2 |  B2ABd3B | A^F DF Ac BA | G6 :|
V:2
B2 de B2A2 | G2 ^FG B3G | ^FD A,D FA GD | B,6 :|
(:musicend:)

Ingår i kategorin [[!andrastämma]].
(:music:)
